assets/icons/custom/note.svg

<svg viewBox="0 0 20 20" xmlns="http://www.w3.org/2000/svg">
    <path d="M18 0H2C0.9 0 0 0.9 0 2V20L4 16H18C19.1 16 20 15.1 20 14V2C20 0.9 19.1 0 18 0ZM17 14H4L2 16V3C2 2.45 2.45 2 3 2H17C17.55 2 18 2.45 18 3V13C18 13.55 17.55 14 17 14Z" fill="inherit"/>
</svg>

<svg viewBox="0 0 20 20" xmlns="http://www.w3.org/2000/svg"><path d="M18 0H2a2 2 0 0 0-2 2v18l4-4h14a2 2 0 0 0 2-2V2a2 2 0 0 0-2-2Zm-1 14H4l-2 2V3c0-.5.5-1 1-1h14c.6 0 1 .5 1 1v10c0 .6-.4 1-1 1Z" fill="inherit"/></svg>
